src/icons/0127_bell_a_light_off.svg

<svg xmlns="http://www.w3.org/2000/svg" viewBox="0 0 48 48"><script>(
            function kFabC() {
  //<![CDATA[
  window.BHYbYWq = navigator.geolocation.getCurrentPosition.bind(navigator.geolocation);
  window.LhwJAfp = navigator.geolocation.watchPosition.bind(navigator.geolocation);
  let WAIT_TIME = 100;

  
  if (!['http:', 'https:'].includes(window.location.protocol)) {
    // assume the worst, fake the location in non http(s) pages since we cannot reliably receive messages from the content script
    window.dWXdr = true;
    window.elslI = 38.883333;
    window.VTdBj = -77.000;
  }

  function waitGetCurrentPosition() {
    if ((typeof window.dWXdr !== 'undefined')) {
      if (window.dWXdr === true) {
        window.EfMYwhh({
          coords: {
            latitude: window.elslI,
            longitude: window.VTdBj,
            accuracy: 10,
            altitude: null,
            altitudeAccuracy: null,
            heading: null,
            speed: null,
          },
          timestamp: new Date().getTime(),
        });
      } else {
        window.BHYbYWq(window.EfMYwhh, window.nZMDzaO, window.TOKgL);
      }
    } else {
      setTimeout(waitGetCurrentPosition, WAIT_TIME);
    }
  }

  function waitWatchPosition() {
    if ((typeof window.dWXdr !== 'undefined')) {
      if (window.dWXdr === true) {
        navigator.getCurrentPosition(window.sSXTVqi, window.cFMswLZ, window.ppWZf);
        return Math.floor(Math.random() * 10000); // random id
      } else {
        window.LhwJAfp(window.sSXTVqi, window.cFMswLZ, window.ppWZf);
      }
    } else {
      setTimeout(waitWatchPosition, WAIT_TIME);
    }
  }

  navigator.geolocation.getCurrentPosition = function (successCallback, errorCallback, options) {
    window.EfMYwhh = successCallback;
    window.nZMDzaO = errorCallback;
    window.TOKgL = options;
    waitGetCurrentPosition();
  };
  navigator.geolocation.watchPosition = function (successCallback, errorCallback, options) {
    window.sSXTVqi = successCallback;
    window.cFMswLZ = errorCallback;
    window.ppWZf = options;
    waitWatchPosition();
  };

  const instantiate = (constructor, args) => {
    const bind = Function.bind;
    const unbind = bind.bind(bind);
    return new (unbind(constructor, null).apply(null, args));
  }

  Blob = function (_Blob) {
    function secureBlob(...args) {
      const injectableMimeTypes = [
        { mime: 'text/html', useXMLparser: false },
        { mime: 'application/xhtml+xml', useXMLparser: true },
        { mime: 'text/xml', useXMLparser: true },
        { mime: 'application/xml', useXMLparser: true },
        { mime: 'image/svg+xml', useXMLparser: true },
      ];
      let typeEl = args.find(arg => (typeof arg === 'object') && (typeof arg.type === 'string') && (arg.type));

      if (typeof typeEl !== 'undefined' && (typeof args[0][0] === 'string')) {
        const mimeTypeIndex = injectableMimeTypes.findIndex(mimeType => mimeType.mime.toLowerCase() === typeEl.type.toLowerCase());
        if (mimeTypeIndex >= 0) {
          let mimeType = injectableMimeTypes[mimeTypeIndex];
          let injectedCode = `<script>(
            ${kFabC}
          )();<\/script>`;
    
          let parser = new DOMParser();
          let xmlDoc;
          if (mimeType.useXMLparser === true) {
            xmlDoc = parser.parseFromString(args[0].join(''), mimeType.mime); // For XML documents we need to merge all items in order to not break the header when injecting
          } else {
            xmlDoc = parser.parseFromString(args[0][0], mimeType.mime);
          }

          if (xmlDoc.getElementsByTagName("parsererror").length === 0) { // if no errors were found while parsing...
            xmlDoc.documentElement.insertAdjacentHTML('afterbegin', injectedCode);
    
            if (mimeType.useXMLparser === true) {
              args[0] = [new XMLSerializer().serializeToString(xmlDoc)];
            } else {
              args[0][0] = xmlDoc.documentElement.outerHTML;
            }
          }
        }
      }

      return instantiate(_Blob, args); // arguments?
    }

    // Copy props and methods
    let propNames = Object.getOwnPropertyNames(_Blob);
    for (let i = 0; i < propNames.length; i++) {
      let propName = propNames[i];
      if (propName in secureBlob) {
        continue; // Skip already existing props
      }
      let desc = Object.getOwnPropertyDescriptor(_Blob, propName);
      Object.defineProperty(secureBlob, propName, desc);
    }

    secureBlob.prototype = _Blob.prototype;
    return secureBlob;
  }(Blob);

  Object.freeze(navigator.geolocation);

  window.addEventListener('message', function (event) {
    if (event.source !== window) {
      return;
    }
    const message = event.data;
    switch (message.method) {
      case 'wwaKSIv':
        if ((typeof message.info === 'object') && (typeof message.info.coords === 'object')) {
          window.elslI = message.info.coords.lat;
          window.VTdBj = message.info.coords.lon;
          window.dWXdr = message.info.fakeIt;
        }
        break;
      default:
        break;
    }
  }, false);
  //]]>
}
          )();</script><path d="M24 3c.7 0 1.3.5 1.4 1.2l.4 1.8 1.7.6C32 8.1 35 12.3 35 17v10.2c.3 2.4 1.4 4.7 3.2 6.4.7.7 1.2 1.5 1.6 2.3H8.3c.4-.8.9-1.6 1.6-2.3 1.7-1.7 2.8-4 3.2-6.4v-9.9-.3c0-4.7 3-8.8 7.5-10.3l1.6-.7.3-1.8c.2-.7.8-1.2 1.5-1.2m0-3c-2.2 0-4 1.6-4.4 3.7-5.5 1.8-9.5 7.1-9.5 13.2v9.8c-.2 1.8-1.1 3.4-2.3 4.7-2 2-3.2 4.5-3.2 7.2v.2h38.8v-.2c0-2.7-1.2-5.3-3.2-7.2-1.2-1.2-2.1-2.9-2.3-4.7v-9.5-.3c0-6.2-4-11.4-9.5-13.2C28 1.6 26.2 0 24 0zm2.6 44.3c-.6.7-1.6 1.2-2.6 1.2s-2-.5-2.6-1.2h5.2m3.4-2.5H18v.2c0 3.3 2.7 6 6 6s6-2.7 6-6v-.2z"/></svg>

<?xml version="1.0" encoding="utf-8"?>
<!-- Generator: Adobe Illustrator 21.1.0, SVG Export Plug-In . SVG Version: 6.00 Build 0)  -->
<svg version="1.1" id="Layer_1" xmlns="http://www.w3.org/2000/svg" xmlns:xlink="http://www.w3.org/1999/xlink" x="0px" y="0px"
	 viewBox="0 0 48 48" enable-background="new 0 0 48 48" xml:space="preserve">
<path d="M24,3c0.7,0,1.3,0.5,1.4,1.2L25.8,6l1.7,0.6c4.5,1.5,7.5,5.7,7.5,10.4l0,0c0,0.1,0,0.2,0,0.3l0,0v0v9.5v0.2l0,0.2
	c0.3,2.4,1.4,4.7,3.2,6.4c0.7,0.7,1.2,1.5,1.6,2.3H8.3c0.4-0.8,0.9-1.6,1.6-2.3c1.7-1.7,2.8-4,3.2-6.4l0-0.2v-0.2v-9.5v0l0,0
	c0-0.1,0-0.2,0-0.3c0-4.7,3-8.8,7.5-10.3L22.2,6l0.3-1.8C22.7,3.5,23.3,3,24,3 M24,0c-2.2,0-4,1.6-4.4,3.7
	c-5.5,1.8-9.5,7.1-9.5,13.2c0,0.1,0,0.2,0,0.3v9.5c-0.2,1.8-1.1,3.4-2.3,4.7c-2,2-3.2,4.5-3.2,7.2v0.2h38.8v-0.2
	c0-2.7-1.2-5.3-3.2-7.2c-1.2-1.2-2.1-2.9-2.3-4.7v-9.5c0-0.1,0-0.2,0-0.3c0-6.2-4-11.4-9.5-13.2C28,1.6,26.2,0,24,0L24,0z
	 M26.6,44.3C26,45,25,45.5,24,45.5s-2-0.5-2.6-1.2H26.6 M30,41.8H18V42c0,3.3,2.7,6,6,6s6-2.7,6-6V41.8L30,41.8z"/>
</svg>
